X:306
T:Caribou Reel
T:As played by Marcel Meilleur, Memories with Andy DeJarlis, Track 14
C:Andy De Jarlis
M:2/4
L:1/16
Z:abc originally from Bruce Osborne, modified by
Z:Peter Yarensky to match Marcel Meilleur's playing and backup as well as possible.
Z:Chords are best guesses from listening to the recording; "+" = sharped but <1/2-step.
Z: (Prints correctly; slide doesn't display correctly in BarFly)
Z:<http://tunes.nhcountrydance.com>.
K:Em
|:"Em" !slide![e2e2]>e2 efed | (Be)e2 efed |"G" Bddd ded^c | BGBd ded^c |
  "Em"  Be2e efed        | Bdef g2fg   | "Am" afge "Em" fde^c \
|1 "B7" dBAF "Em"E4 :|2 "B7" dBAF "Em" E2B^c |]
|: "Em" B^GE2 EF"+"=GE | B^GE2 (3(E^GE)E2  | "D" D3D D2D2 | A,DDD D2B^c |
   "Em" B^GE2 EF"+"=GE | B^GBe e3e | "Am" efe^d "Em" B^c=dB \
|1 "B7" AGFD "Em" E2 :|2 "B7" AGFD "Em" E4 |]


